X:1
T:Title
%%score { ( 1 4 ) | ( 2 3 ) }
L:1/8
Q:1/4=94
M:4/4
K:Db
V:1 treble nm="Grand Piano"
V:4 treble 
V:2 bass 
V:3 bass 
V:1
 A2 A2 GF[=DB][DF] | [B,EG]2 [B,EG]2 [A,EG]2 z2 | z2 [B,G]2 [A,F]2 [G,EG]2 | F6 z2 | %4
w: Robert~Harkness * * * * *||||
 A2 A2 GF[=DB][DF] | G2 A2 B2 d2 | A6 z2 | [F,D]6 z2 | [A,FA]2 [DFA][B,FA] [CGA]3 [CGA] | %9
w: |||||
 [A,FA][FB][Fc][Fd] [Ge]4 | [Fd]2 cF cBAG | z4 E4 | [FA]2 [FA][FA] [GA]3 [GA] | z4 e4 | %14
w: |||||
 d2 [=Gc][GB] AfdF | [CF]2 [CE]2 D4 |] %16
w: ||
V:2
 [D,F,D]2 [D,F,D]2 [D,B,D][D,A,D][B,,B,][B,,B,] | E,2 D,2 C,2[K:treble] E2 | A6[K:bass] z2 | %3
 [D,A,D]6 z2 | [D,F,D]2 [D,F,D]2 [D,B,D][D,A,D][B,,B,][B,,B,] | [E,B,E]2 [F,B,=D]2 [G,B,E]2 z2 | %6
 z2 [A,,B,]2 [A,,A,]2 [A,,G,]2 | D,6 z2 | D,2 D,D, E,3 A, | D,[D,A,][D,A,][D,D] [A,C]4 | %10
 [D,A,]2 [F,=A,F][F,A,E] [G,A,E][G,B,D][F,B,=D][E,B,E] | [A,,A,]2 [A,,F,]2 [E,=G,D]2 [A,,A,]2 | %12
 [D,A,]2 [D,D][D,B,] [E,C]3 [A,C] | z4[K:treble] [CG]4 | %14
 [B,DF]2[K:bass] [E,D][E,D][K:treble] [A,DF][A,DA][A,DF][K:bass][A,D] | %15
 [A,,A,]2 [A,,G,]2 [D,F,]4 |] %16
V:3
 x8 | x6[K:treble] x2 | z2[K:bass] A,,2 C,2 C,2 | x8 | x8 | x8 | x8 | x8 | x8 | x8 | x8 | x8 | x8 | %13
 [D,A,][D,A,][D,A,][D,A,][K:treble] A,2 z2 | x2[K:bass] x2[K:treble] x3[K:bass] x | x8 |] %16
V:4
 x8 | x8 | x8 | x8 | x8 | x8 | z2 G2 F2 [EA]2 | x8 | x8 | x8 | x8 | [DF]2 D2 z2 C2 | x8 | %13
 [FA][FB][Fc][Fd] z2 =A,2 | x8 | x8 |] %16

